icons/ArrowUpLeft_filled.svg

<svg width="24" height="24" viewBox="0 0 24 24" fill="none" xmlns="http://www.w3.org/2000/svg">
<path fill-rule="evenodd" clip-rule="evenodd" d="M4.15033,5.40034c0,-0.69036 0.55964,-1.25 1.25,-1.25h11.31367c0.6904,0 1.25,0.55964 1.25,1.25c0,0.69035 -0.5596,1.25 -1.25,1.25h-8.2959l11.0654,11.06546c0.4882,0.4881 0.4882,1.2796 0,1.7677c-0.4881,0.4882 -1.2796,0.4882 -1.7677,0l-11.06547,-11.0654v8.2959c0,0.6904 -0.55965,1.25 -1.25,1.25c-0.69036,0 -1.25,-0.5596 -1.25,-1.25z" fill="#002B51"/>
</svg>

<svg width="24" height="24" viewBox="0 0 24 24" fill="none" xmlns="http://www.w3.org/2000/svg">
<path fill-rule="evenodd" clip-rule="evenodd" d="M4.15033 5.40034C4.15033 4.70998 4.70997 4.15034 5.40033 4.15034L16.714 4.15034C17.4044 4.15034 17.964 4.70998 17.964 5.40034C17.964 6.09069 17.4044 6.65034 16.714 6.65034H8.4181L19.4835 17.7158C19.9717 18.2039 19.9717 18.9954 19.4835 19.4835C18.9954 19.9717 18.2039 19.9717 17.7158 19.4835L6.65033 8.4181V16.714C6.65033 17.4044 6.09068 17.964 5.40033 17.964C4.70997 17.964 4.15033 17.4044 4.15033 16.714V5.40034Z" fill="#002B51"/>
</svg>
